public/img/clients/curatescience.svg

<svg width="200" height="100" viewBox="0 0 200 100" fill="none" xmlns="http://www.w3.org/2000/svg">
<path fill-rule="evenodd" clip-rule="evenodd" d="M46.868 47.8919C45.716 49.0769 43.313 50.9849 38.672 50.9849C31.992 50.9849 26.758 46.5749 26.758 39.2689C26.758 31.9289 32.058 27.5509 38.672 27.5509C43.346 27.5509 45.88 29.4909 46.472 30.1179L44.827 34.5279C44.399 33.9679 41.964 32.1579 38.969 32.1579C35.117 32.1579 32.155 34.7249 32.155 39.1679C32.155 43.6109 35.249 46.1449 38.968 46.1449C41.798 46.1449 43.838 45.0249 45.088 43.7429L46.866 47.8899L46.868 47.8919ZM64.215 50.5899H59.145L59.115 48.7479C58.422 49.7349 56.711 50.9529 54.375 50.9529C52.037 50.9529 50.555 50.1299 49.733 49.0429C48.943 47.9249 48.548 46.5099 48.548 44.1729V34.3629H53.814V43.4479C53.814 45.3239 54.341 46.6079 56.217 46.6079C58.093 46.6079 58.949 45.1279 58.949 42.9879V34.3639H64.214V50.5899H64.215ZM77.875 39.2029H77.645C77.349 39.0379 76.658 38.8079 75.735 38.8079C74.551 38.8079 73.695 39.4659 73.301 39.9929C72.907 40.5199 72.479 41.5729 72.479 43.3829V50.5909H67.213V34.3649H72.479L72.446 36.6699H72.512C73.434 34.8919 74.784 34.0679 76.528 34.0679C77.614 34.0679 78.174 34.3639 78.174 34.3639L77.877 39.2039L77.875 39.2029ZM94.333 50.5899H89.298L89.198 48.8799C88.508 49.5699 87.191 50.9529 84.558 50.9529C81.695 50.9529 78.668 49.4059 78.668 45.7849C78.668 42.1649 81.991 40.9469 84.986 40.8149L89.066 40.6509V40.2909C89.066 38.5779 87.85 37.6889 85.743 37.6889C83.669 37.6889 81.596 38.6109 80.773 39.1389L79.391 35.7149C80.774 35.0229 83.309 34.0689 86.336 34.0689C89.366 34.0689 91.109 34.7609 92.393 35.9449C93.643 37.1299 94.333 38.7099 94.333 41.4419V50.5919V50.5899ZM89.1 43.4499L86.5 43.6149C84.888 43.6809 83.933 44.3719 83.933 45.5899C83.933 46.8399 84.953 47.5979 86.401 47.5979C87.818 47.5979 88.771 46.6759 89.101 46.1159V43.4499H89.1ZM106.776 38.3799H103.188V44.2059C103.188 45.5879 103.386 45.9159 103.648 46.2129C103.878 46.4769 104.208 46.6079 104.9 46.6079C105.723 46.6079 106.48 46.3129 106.48 46.3129L106.743 50.4259C106.348 50.5259 104.9 50.9529 102.991 50.9529C101.116 50.9529 99.865 50.3929 99.041 49.4379C98.219 48.4839 97.891 47.1349 97.891 44.6659V38.3799H95.586V34.3969H97.89V29.9869H103.188V34.3969H106.776V38.3799ZM124.583 43.7449H113.03C113.26 46.0819 115.038 47.1349 117.177 47.1349C119.284 47.1349 121.127 46.2129 122.047 45.5879L124.122 48.3179C123.595 48.7149 121.456 50.9529 116.42 50.9529C111.417 50.9529 107.764 47.8589 107.764 42.4929C107.764 37.1289 111.714 34.0679 116.519 34.0679C121.323 34.0679 124.647 37.2609 124.647 41.9999C124.647 42.7899 124.582 43.7449 124.582 43.7449H124.583ZM119.745 40.7499C119.711 39.2699 118.625 37.4899 116.42 37.4899C114.248 37.4899 113.13 39.2029 113.063 40.7499H119.745ZM41.952 76.7599C40.339 78.0449 38.232 78.6369 35.797 78.6369C32.505 78.6369 29.577 76.9269 27.733 75.2139L30.366 71.3299C32.012 73.042 34.546 74.1939 36.291 74.1939C38.003 74.1939 39.319 73.3709 39.319 71.8569C39.319 70.3109 37.641 69.7169 36.654 69.3549C35.666 68.993 33.954 68.4009 33.198 68.0719C32.638 67.8089 31.486 67.382 30.498 66.4269C29.511 65.5049 28.722 64.1869 28.722 62.0489C28.722 59.8759 29.776 58.1639 31.092 57.0789C32.376 55.9919 34.449 55.2689 37.082 55.2689C39.715 55.2689 42.744 56.5189 44.292 58.0649L42.02 61.7849C40.703 60.4679 38.662 59.4799 36.95 59.4799C35.24 59.4799 33.99 60.1399 33.99 61.5219C33.99 62.9039 35.273 63.4319 36.293 63.8259C37.281 64.2209 38.96 64.8129 39.683 65.1089C40.309 65.3389 41.823 65.9319 42.843 66.952C43.798 67.9059 44.621 69.2889 44.621 71.3289C44.621 73.5019 43.601 75.4769 41.955 76.7589L41.952 76.7599ZM60.91 76.6619C60.747 76.7939 59.035 78.6039 54.723 78.6039C50.28 78.6039 46.166 75.5759 46.166 70.1789C46.166 64.7469 50.346 61.7189 54.789 61.7189C58.935 61.7189 60.812 63.4309 60.812 63.4309L59.659 67.4129C59.199 67.0509 57.749 65.9649 55.479 65.9649C53.241 65.9649 51.464 67.5119 51.464 70.0789C51.464 72.645 53.077 74.2589 55.544 74.2589C58.014 74.2589 59.659 72.6789 59.659 72.6789L60.909 76.6609L60.91 76.6619ZM65.355 60.1399C63.578 60.1399 62.36 59.0539 62.36 57.4079C62.36 55.7949 63.578 54.6779 65.355 54.6779C67.133 54.6779 68.351 55.7949 68.351 57.4079C68.351 59.0539 67.134 60.1399 65.356 60.1399H65.355ZM67.988 78.2419H62.722V62.0159H67.988V78.2419ZM86.914 71.396H75.362C75.592 73.7329 77.37 74.7859 79.509 74.7859C81.614 74.7859 83.457 73.8639 84.379 73.2389L86.453 75.9689C85.926 76.3649 83.787 78.6029 78.751 78.6029C73.748 78.6029 70.095 75.5099 70.095 70.1449C70.095 64.7789 74.045 61.7189 78.85 61.7189C83.656 61.7189 86.98 64.9109 86.98 69.6489C86.98 70.4389 86.914 71.3949 86.914 71.3949V71.396ZM82.076 68.3999C82.043 66.9199 80.956 65.1429 78.752 65.1429C76.58 65.1429 75.46 66.8529 75.395 68.4009H82.075L82.076 68.3999ZM105.183 78.2419H99.917V69.7819C99.917 67.6449 99.587 66.0319 97.415 66.0319C95.145 66.0319 94.519 67.8749 94.519 70.2119V78.2419H89.252V62.0159H94.518L94.484 64.3529H94.55C95.438 62.9029 96.92 61.7199 99.256 61.7199C103.963 61.7199 105.181 64.7479 105.181 68.6639V78.2419H105.183ZM121.87 76.6619C121.707 76.7939 119.995 78.6039 115.683 78.6039C111.24 78.6039 107.126 75.5759 107.126 70.1789C107.126 64.7469 111.306 61.7189 115.749 61.7189C119.895 61.7189 121.771 63.4309 121.771 63.4309L120.619 67.4129C120.159 67.0509 118.709 65.9649 116.439 65.9649C114.201 65.9649 112.424 67.5119 112.424 70.0789C112.424 72.645 114.037 74.2589 116.504 74.2589C118.974 74.2589 120.619 72.6789 120.619 72.6789L121.869 76.6609L121.87 76.6619ZM139.48 71.396H127.93C128.16 73.7329 129.937 74.7859 132.076 74.7859C134.182 74.7859 136.026 73.8639 136.946 73.2389L139.021 75.9689C138.495 76.3649 136.355 78.6029 131.321 78.6029C126.317 78.6029 122.664 75.5099 122.664 70.1449C122.664 64.7789 126.614 61.7189 131.418 61.7189C136.224 61.7189 139.548 64.9109 139.548 69.6489C139.548 70.4389 139.482 71.3949 139.482 71.3949L139.48 71.396ZM134.643 68.4009C134.61 66.9209 133.523 65.1439 131.319 65.1439C129.145 65.1439 128.026 66.8539 127.959 68.4019H134.642L134.643 68.4009ZM153.323 20.9449C145.033 20.9449 135.463 22.1219 133.84 34.4649H158.21C158.72 33.2309 159.876 32.1369 161.223 32.1369C163.039 32.1369 164.515 33.4369 164.515 35.2519C164.515 37.0669 163.039 38.7259 161.223 38.7259C159.876 38.7259 158.72 36.9339 158.21 36.9339H144.194C144.288 38.1679 144.834 41.1399 150.45 41.6739C151.01 40.6539 152.08 39.8189 153.323 39.8189C155.139 39.8189 156.615 41.2259 156.615 43.0409C156.615 44.8569 155.139 46.2989 153.323 46.2989C151.973 46.2989 150.81 45.7339 150.303 44.5669C142.59 43.8409 141.456 39.4019 141.353 36.9329H133.607C133.601 36.9329 133.809 37.0899 133.809 37.3199C133.809 50.7999 143.919 53.5079 153.794 53.5079V60.0909C153.794 60.0909 173.308 57.2889 173.308 37.2279C173.308 23.7479 162.411 20.9459 153.321 20.9459L153.323 20.9449Z" fill="black"/>
</svg>

<svg xmlns="http://www.w3.org/2000/svg" focusable="false" role="img" viewBox="0 0 200 100" fill="currentColor">
  <path fill-rule="evenodd" d="M46.868 47.892c-1.152 1.185-3.555 3.093-8.196 3.093-6.68 0-11.914-4.41-11.914-11.716 0-7.34 5.3-11.718 11.914-11.718 4.674 0 7.208 1.94 7.8 2.567l-1.645 4.41c-.428-.56-2.863-2.37-5.858-2.37-3.852 0-6.814 2.567-6.814 7.01s3.094 6.977 6.813 6.977c2.83 0 4.87-1.12 6.12-2.402l1.778 4.147.002.002zm17.347 2.698h-5.07l-.03-1.842c-.693.987-2.404 2.205-4.74 2.205-2.338 0-3.82-.823-4.642-1.91-.79-1.118-1.185-2.533-1.185-4.87v-9.81h5.266v9.085c0 1.876.527 3.16 2.403 3.16s2.732-1.48 2.732-3.62v-8.624h5.265V50.59h.001zm13.66-11.387h-.23c-.296-.165-.987-.395-1.91-.395-1.184 0-2.04.658-2.434 1.185-.394.527-.822 1.58-.822 3.39v7.208h-5.266V34.365h5.266l-.033 2.305h.066c.922-1.778 2.272-2.602 4.016-2.602 1.086 0 1.646.296 1.646.296l-.297 4.84-.002-.001zM94.333 50.59h-5.035l-.1-1.71c-.69.69-2.007 2.073-4.64 2.073-2.863 0-5.89-1.547-5.89-5.168 0-3.62 3.323-4.838 6.318-4.97l4.08-.164v-.36c0-1.713-1.216-2.602-3.323-2.602-2.074 0-4.147.922-4.97 1.45l-1.382-3.424c1.383-.692 3.918-1.646 6.945-1.646 3.03 0 4.773.692 6.057 1.876 1.25 1.185 1.94 2.765 1.94 5.497v9.15-.002zM89.1 43.45l-2.6.165c-1.612.066-2.567.757-2.567 1.975 0 1.25 1.02 2.008 2.468 2.008 1.417 0 2.37-.922 2.7-1.482V43.45H89.1zm17.676-5.07h-3.588v5.826c0 1.382.198 1.71.46 2.007.23.264.56.395 1.252.395.823 0 1.58-.295 1.58-.295l.263 4.113c-.395.1-1.843.527-3.752.527-1.875 0-3.126-.56-3.95-1.515-.822-.954-1.15-2.303-1.15-4.772V38.38h-2.305v-3.983h2.304v-4.41h5.298v4.41h3.588v3.983zm17.807 5.365H113.03c.23 2.337 2.008 3.39 4.147 3.39 2.107 0 3.95-.922 4.87-1.547l2.075 2.73c-.527.397-2.666 2.635-7.702 2.635-5.003 0-8.656-3.094-8.656-8.46 0-5.364 3.95-8.425 8.755-8.425 4.804 0 8.128 3.193 8.128 7.932 0 .79-.065 1.745-.065 1.745h.001zm-4.838-2.995c-.034-1.48-1.12-3.26-3.325-3.26-2.172 0-3.29 1.713-3.357 3.26h6.682zM41.952 76.76c-1.613 1.285-3.72 1.877-6.155 1.877-3.292 0-6.22-1.71-8.064-3.423l2.633-3.884c1.646 1.712 4.18 2.864 5.925 2.864 1.712 0 3.028-.823 3.028-2.337 0-1.546-1.678-2.14-2.665-2.502-.988-.362-2.7-.954-3.456-1.283-.56-.263-1.712-.69-2.7-1.645-.987-.922-1.776-2.24-1.776-4.378 0-2.173 1.054-3.885 2.37-4.97 1.284-1.087 3.357-1.81 5.99-1.81s5.662 1.25 7.21 2.796l-2.272 3.72c-1.317-1.317-3.358-2.305-5.07-2.305-1.71 0-2.96.66-2.96 2.042 0 1.382 1.283 1.91 2.303 2.304.988.395 2.667.987 3.39 1.283.626.23 2.14.823 3.16 1.843.955.954 1.778 2.337 1.778 4.377a6.872 6.872 0 01-2.666 5.43l-.003.001zm18.958-.098c-.163.132-1.875 1.942-6.187 1.942-4.443 0-8.557-3.028-8.557-8.425 0-5.432 4.18-8.46 8.623-8.46 4.146 0 6.023 1.712 6.023 1.712l-1.153 3.982a6.674 6.674 0 00-4.18-1.448c-2.238 0-4.015 1.547-4.015 4.114 0 2.566 1.613 4.18 4.08 4.18 2.47 0 4.115-1.58 4.115-1.58l1.25 3.982.001.001zm4.445-16.522c-1.777 0-2.995-1.086-2.995-2.732 0-1.613 1.218-2.73 2.995-2.73 1.778 0 2.996 1.117 2.996 2.73 0 1.646-1.217 2.732-2.995 2.732h-.001zm2.633 18.102h-5.266V62.016h5.266v16.226zm18.926-6.846H75.362c.23 2.337 2.008 3.39 4.147 3.39 2.105 0 3.948-.922 4.87-1.547l2.074 2.73c-.527.396-2.666 2.634-7.702 2.634-5.003 0-8.656-3.093-8.656-8.458 0-5.366 3.95-8.426 8.755-8.426 4.806 0 8.13 3.192 8.13 7.93 0 .79-.066 1.746-.066 1.746v.001zM82.076 68.4c-.033-1.48-1.12-3.257-3.324-3.257-2.172 0-3.292 1.71-3.357 3.258h6.68l.001-.001zm23.107 9.842h-5.266v-8.46c0-2.137-.33-3.75-2.502-3.75-2.27 0-2.896 1.843-2.896 4.18v8.03h-5.267V62.016h5.266l-.034 2.337h.066c.888-1.45 2.37-2.633 4.706-2.633 4.707 0 5.925 3.028 5.925 6.944v9.578h.002zm16.687-1.58c-.163.132-1.875 1.942-6.187 1.942-4.443 0-8.557-3.028-8.557-8.425 0-5.432 4.18-8.46 8.623-8.46 4.146 0 6.022 1.712 6.022 1.712l-1.152 3.982a6.674 6.674 0 00-4.18-1.448c-2.238 0-4.015 1.547-4.015 4.114 0 2.566 1.613 4.18 4.08 4.18 2.47 0 4.115-1.58 4.115-1.58l1.25 3.982.001.001zm17.61-5.266h-11.55c.23 2.337 2.007 3.39 4.146 3.39 2.106 0 3.95-.922 4.87-1.547l2.075 2.73c-.526.396-2.666 2.634-7.7 2.634-5.004 0-8.657-3.093-8.657-8.458 0-5.366 3.95-8.426 8.754-8.426 4.806 0 8.13 3.192 8.13 7.93 0 .79-.066 1.746-.066 1.746l-.002.001zm-4.837-2.995c-.033-1.48-1.12-3.257-3.324-3.257-2.174 0-3.293 1.71-3.36 3.258h6.683l.001-.001zm18.68-47.456c-8.29 0-17.86 1.177-19.483 13.52h24.37c.51-1.234 1.666-2.328 3.013-2.328 1.816 0 3.292 1.3 3.292 3.115 0 1.815-1.476 3.474-3.292 3.474-1.347 0-2.503-1.792-3.013-1.792h-14.016c.094 1.234.64 4.206 6.256 4.74.56-1.02 1.63-1.855 2.873-1.855 1.816 0 3.292 1.407 3.292 3.222 0 1.816-1.476 3.258-3.292 3.258-1.35 0-2.513-.565-3.02-1.732-7.713-.726-8.847-5.165-8.95-7.634h-7.746c-.006 0 .202.157.202.387 0 13.48 10.11 16.188 19.985 16.188v6.583s19.514-2.802 19.514-22.863c0-13.48-10.897-16.282-19.987-16.282l.002-.001z" clip-rule="evenodd"/>
</svg>
